assets/images/what-is-budget/arrow-revenues-to-right.svg

<svg xmlns="http://www.w3.org/2000/svg" width="22.7" height="11.4" viewBox="0 0 22.7 11.4"><style>.st0{fill:#009ce4}</style><path class="st0" d="M20.3 4l1 1-.6-.6c-.1-.1-.2-.1-.2-.2-.1 0-.1-.1-.2-.2M19 5.7H1h18m2.3.7l-1 1c.1-.1.1-.2.2-.2s.2-.1.2-.2l.6-.6M17.7 0l-1.4 1.4 3.3 3.3H0v2h19.6L16.3 10l1.4 1.4 5-5-.7-.7.7-.7-5-5zM20 6.3V5.1l.6.6-.6.6z" id="Shape_1167_3_"/></svg>

<svg version="1.1"
	 xmlns="http://www.w3.org/2000/svg" xmlns:xlink="http://www.w3.org/1999/xlink" xmlns:a="http://ns.adobe.com/AdobeSVGViewerExtensions/3.0/"
	 x="0px" y="0px" width="22.7px" height="11.4px" viewBox="0 0 22.7 11.4" style="enable-background:new 0 0 22.7 11.4;"
	 xml:space="preserve">
<style type="text/css">
	.st0{fill:#009CE4;}
</style>
<defs>
</defs>
<g id="Shape_1167_3_">
	<g>
		<path class="st0" d="M20.3,4l1,1c0,0,0,0,0,0c0,0,0,0,0,0l-0.6-0.6c-0.1-0.1-0.2-0.1-0.2-0.2C20.4,4.2,20.4,4.1,20.3,4 M19,5.7
			L19,5.7l-18,0v0H19 M21.3,6.4L21.3,6.4C21.3,6.4,21.3,6.4,21.3,6.4L21.3,6.4l-1,1c0.1-0.1,0.1-0.2,0.2-0.2c0.1,0,0.2-0.1,0.2-0.2
			L21.3,6.4 M17.7,0l-1.4,1.4l3.3,3.3H0v2h19.6L16.3,10l1.4,1.4l5-5L22,5.7L22.7,5L17.7,0L17.7,0z M20,6.3V5.1l0.6,0.6L20,6.3
			L20,6.3z"/>
	</g>
</g>
</svg>
